X:1
T:The Creel of Turf
R:Jig
S:Tommy Peoples, Donegal (fiddle)
D:Demo tape - 197?
N:As played
Z:Bernie Stocks
M:6/8
K:D
EBB {d}BAG | FDF AGF | (3.B.B.BB-Bcd | AGF ~E2D | ~B3 {d}BAG | FDF AGF |
EBB EBd | AGF ~E2D | EBB {d}BAG | (3.F.F.DF AGF | (3.E.E.EB EBd | AGF ~E2D |
+EB+(3.B.B.B {d}BAG | FDF AGF | EBB EBd | AGF ~E2A || Bee {f}ede | ~f3 dBA |
~B2e ede | ~f3 d2A | +EB+(3.e.e.e ede | ~f3 dBA | ~B3 Bcd | AGF ~E2A :|
<end>
<start>
